img/logos/wowair.svg

<svg xmlns="http://www.w3.org/2000/svg" xmlns:xlink="http://www.w3.org/1999/xlink" width="110" height="110" viewBox="0 0 279 279"><defs><path id="a" d="M.06 279h278.556V.402H.06z"/></defs><g fill="none" fill-rule="evenodd"><mask id="b" fill="#fff"><use xlink:href="#a"/></mask><path d="M278.616 139.701c0 76.925-62.372 139.299-139.311 139.299C62.37 279 0 216.626 0 139.701 0 62.774 62.37.402 139.305.402c76.939 0 139.311 62.372 139.311 139.299" fill="#991782" mask="url(#b)"/><path d="M226.667 188.049h2.241v6.615c1.836-4.147 5.722-7.159 10.351-6.982v2.476h-.239c-5.403 0-10.112 4.069-10.112 11.672v9.571h-2.241v-23.352zm-9.987-6.099h2.795v-3.081h-2.795v3.081zm.267 29.451h2.253v-23.352h-2.253v23.352zm-27.261-6.772v-.116c0-4.837 4.165-7.589 10.213-7.589 3.249 0 5.497.426 7.739 1.005v-1.005c0-4.694-2.889-7.139-7.7-7.139-2.845 0-5.177.77-7.324 1.876l-.834-1.956c2.564-1.192 5.087-2.023 8.299-2.023 3.163 0 5.678.858 7.366 2.567 1.561 1.55 2.39 3.697 2.39 6.6v14.552h-2.197v-3.88c-1.62 2.227-4.49 4.427-8.941 4.427-4.353 0-9.011-2.459-9.011-7.319zm17.99-1.961v-2.671c-1.968-.5-4.572-1.04-7.92-1.04-4.938 0-7.697 2.175-7.697 5.448v.088c0 3.374 3.201 5.338 6.78 5.338 4.764 0 8.837-2.906 8.837-7.163zM64.692 144.117s-1.569-.14-1.961-.224c-.387-.083-1.286-.373-1.309-.772l-.004-.008v-.007c0-.003.003-.006.004-.008.023-.399.922-.69 1.309-.772.392-.084 1.961-.224 1.961-.224l33.271-1.477 7.415-24.376a.56.56 0 0 1 .037-.138c.081-.3.125-.611.125-.941 0-1.89-1.52-3.419-3.408-3.419H85.539a3.415 3.415 0 0 0-3.262 2.405 1.974 1.974 0 0 0-.069.319l-5.772 22.012-6.606-22.126-.232-.753a3.414 3.414 0 0 0-3.124-2.069H51.355a3.383 3.383 0 0 0-3.237 2.399l-6.645 22.308-5.534-21.771c-.031-.104-.07-.217-.095-.319a3.411 3.411 0 0 0-3.254-2.405H15.659a3.414 3.414 0 0 0-3.413 3.419c0 .362.045.695.158.996l16.281 54.329.061.227a3.439 3.439 0 0 0 3.238 2.294h16.023a3.404 3.404 0 0 0 3.249-2.395l7.596-23.669 7.323 23.493c.007.05.024.091.03.125l.082.206c.013.045.031.093.045.146a3.432 3.432 0 0 0 3.15 2.094h16.139a3.41 3.41 0 0 0 3.175-2.195l.155-.478c0-.01 0-.041.007-.054l7.581-24.956-31.847-1.216m64.355-4.871c.915-3.786 3.617-6.749 7.046-7.714.146-1.659 1.037-11.657 1.296-12.302a1.096 1.096 0 0 1 1.024-.717h.187c.093 0 .742.013 1.024.717.259.645 1.151 10.643 1.297 12.302 3.428.965 6.13 3.928 7.046 7.714l24.725 1.096a35.062 35.062 0 0 0-.011-.308c-1-16.297-14.832-29.728-34.017-29.728-19.323 0-33.277 13.664-34.235 30.032l24.618-1.092m18.371 7.35c-1.548 3.751-4.951 6.362-8.911 6.362s-7.363-2.611-8.911-6.362l-25.053-.957c1.661 15.7 15.245 28.374 33.904 28.374 18.68 0 32.299-12.77 34.09-28.377l-25.119.96m114.155-34.845h-16.601a3.421 3.421 0 0 0-3.263 2.392c-.03.115-.062.228-.072.332l-5.757 22.012-6.618-22.116-.244-.763a3.358 3.358 0 0 0-3.118-2.069h-15.099a3.43 3.43 0 0 0-3.27 2.399l-6.624 22.336-5.541-21.799c-.019-.104-.062-.217-.088-.332a3.417 3.417 0 0 0-3.256-2.392h-16.926a3.413 3.413 0 0 0-3.415 3.419c0 .352.056.695.155 1.024l7.334 24.436 33.16 1.472s1.569.14 1.96.224c.388.082 1.287.373 1.31.772 0 .002.004.005.004.008v.007c0 .002-.004.004-.004.008-.023.399-.922.689-1.31.772-.391.084-1.96.224-1.96.224l-31.736 1.213 7.535 25.155.058.216a3.414 3.414 0 0 0 3.225 2.315h16.02a3.417 3.417 0 0 0 3.262-2.395l7.586-23.669 7.321 23.493c.018.05.038.074.058.125l.066.206c.007.055.02.093.04.146.535 1.225 1.73 2.094 3.157 2.094h16.128a3.418 3.418 0 0 0 3.185-2.195l.151-.478c0-.01 0-.041.013-.054l16.413-54.04c.013-.038.017-.091.03-.138a3.41 3.41 0 0 0-3.269-4.36" fill="#FFF"/></g></svg>

<svg xmlns="http://www.w3.org/2000/svg" xmlns:xlink="http://www.w3.org/1999/xlink" width="110px" height="110px" viewBox="0 0 279 279" version="1.1">
  <defs>
      <polygon id="path-1" points="0.06 279 278.616 279 278.616 0.402 0.06 0.402"/>
  </defs>
  <g stroke="none" stroke-width="1" fill="none" fill-rule="evenodd">
    <g>
      <g>
        <mask id="mask-2" fill="white">
          <use xlink:href="#path-1"/>
        </mask>
        <g/>
        <path d="M278.616,139.701 C278.616,216.626 216.244,279 139.305,279 C62.37,279 0,216.626 0,139.701 C0,62.774 62.37,0.402 139.305,0.402 C216.244,0.402 278.616,62.774 278.616,139.701" fill="#991782" mask="url(#mask-2)"/>
      </g>
      <path d="M226.667,188.049 L228.908,188.049 L228.908,194.664 C230.744,190.517 234.63,187.505 239.259,187.682 L239.259,190.158 L239.02,190.158 C233.617,190.158 228.908,194.227 228.908,201.83 L228.908,211.401 L226.667,211.401 L226.667,188.049 L226.667,188.049 Z M216.68,181.95 L219.475,181.95 L219.475,178.869 L216.68,178.869 L216.68,181.95 Z M216.947,211.401 L219.2,211.401 L219.2,188.049 L216.947,188.049 L216.947,211.401 Z M189.686,204.629 L189.686,204.513 C189.686,199.676 193.851,196.924 199.899,196.924 C203.148,196.924 205.396,197.35 207.638,197.929 L207.638,196.924 C207.638,192.23 204.749,189.785 199.938,189.785 C197.093,189.785 194.761,190.555 192.614,191.661 L191.78,189.705 C194.344,188.513 196.867,187.682 200.079,187.682 C203.242,187.682 205.757,188.54 207.445,190.249 C209.006,191.799 209.835,193.946 209.835,196.849 L209.835,211.401 L207.638,211.401 L207.638,207.521 C206.018,209.748 203.148,211.948 198.697,211.948 C194.344,211.948 189.686,209.489 189.686,204.629 L189.686,204.629 Z M207.676,202.668 L207.676,199.997 C205.708,199.497 203.104,198.957 199.756,198.957 C194.818,198.957 192.059,201.132 192.059,204.405 L192.059,204.493 C192.059,207.867 195.26,209.831 198.839,209.831 C203.603,209.831 207.676,206.925 207.676,202.668 L207.676,202.668 Z" fill="#FFFFFF"/>
      <path d="M64.692,144.117 C64.692,144.117 63.123,143.977 62.731,143.893 C62.344,143.81 61.445,143.52 61.422,143.121 C61.421,143.117 61.418,143.115 61.418,143.113 L61.418,143.109 L61.418,143.106 C61.418,143.103 61.421,143.1 61.422,143.098 C61.445,142.699 62.344,142.408 62.731,142.326 C63.123,142.242 64.692,142.102 64.692,142.102 L97.963,140.625 L105.378,116.249 C105.383,116.211 105.395,116.158 105.415,116.111 C105.496,115.811 105.54,115.5 105.54,115.17 C105.54,113.28 104.02,111.751 102.132,111.751 L85.539,111.751 C84.001,111.751 82.713,112.762 82.277,114.156 C82.246,114.258 82.221,114.371 82.208,114.475 L76.436,136.487 L69.83,114.361 L69.598,113.608 C69.082,112.402 67.873,111.539 66.474,111.539 L51.355,111.539 C49.837,111.539 48.542,112.541 48.118,113.938 L41.473,136.246 L35.939,114.475 C35.908,114.371 35.869,114.258 35.844,114.156 C35.416,112.762 34.114,111.751 32.59,111.751 L15.659,111.751 C13.772,111.751 12.246,113.28 12.246,115.17 C12.246,115.532 12.291,115.865 12.404,116.166 L28.685,170.495 L28.746,170.722 C29.208,172.05 30.49,173.016 31.984,173.016 L48.007,173.016 C49.537,173.016 50.82,172.01 51.256,170.621 L58.852,146.952 L66.175,170.445 C66.182,170.495 66.199,170.536 66.205,170.57 L66.287,170.776 C66.3,170.821 66.318,170.869 66.332,170.922 C66.847,172.147 68.074,173.016 69.482,173.016 L85.621,173.016 C87.058,173.016 88.317,172.1 88.796,170.821 L88.951,170.343 C88.951,170.333 88.951,170.302 88.958,170.289 L96.539,145.333 L64.692,144.117" fill="#FFFFFF"/>
      <path d="M129.047,139.246 C129.962,135.46 132.664,132.497 136.093,131.532 C136.239,129.873 137.13,119.875 137.389,119.23 C137.672,118.526 138.32,118.513 138.413,118.513 L138.507,118.513 L138.6,118.513 C138.693,118.513 139.342,118.526 139.624,119.23 C139.883,119.875 140.775,129.873 140.921,131.532 C144.349,132.497 147.051,135.46 147.967,139.246 L172.692,140.342 C172.686,140.154 172.681,140.034 172.681,140.034 C171.681,123.737 157.849,110.306 138.664,110.306 C119.341,110.306 105.387,123.97 104.429,140.338 L129.047,139.246" fill="#FFFFFF"/>
      <path d="M147.418,146.596 C145.87,150.347 142.467,152.958 138.507,152.958 C134.547,152.958 131.144,150.347 129.596,146.596 L104.543,145.639 C106.204,161.339 119.788,174.013 138.447,174.013 C157.127,174.013 170.746,161.243 172.537,145.636 L147.418,146.596" fill="#FFFFFF"/>
      <path d="M261.573,111.751 L244.972,111.751 C243.44,111.751 242.139,112.762 241.709,114.143 C241.679,114.258 241.647,114.371 241.637,114.475 L235.88,136.487 L229.262,114.371 L229.018,113.608 C228.504,112.382 227.313,111.539 225.9,111.539 L210.801,111.539 C209.27,111.539 207.975,112.541 207.531,113.938 L200.907,136.274 L195.366,114.475 C195.347,114.371 195.304,114.258 195.278,114.143 C194.85,112.762 193.547,111.751 192.022,111.751 L175.096,111.751 C173.205,111.751 171.681,113.28 171.681,115.17 C171.681,115.522 171.737,115.865 171.836,116.194 L179.17,140.63 L212.33,142.102 C212.33,142.102 213.899,142.242 214.29,142.326 C214.678,142.408 215.577,142.699 215.6,143.098 C215.6,143.1 215.604,143.103 215.604,143.106 L215.604,143.109 L215.604,143.113 C215.604,143.115 215.6,143.117 215.6,143.121 C215.577,143.52 214.678,143.81 214.29,143.893 C213.899,143.977 212.33,144.117 212.33,144.117 L180.594,145.33 L188.129,170.485 L188.187,170.701 C188.652,172.05 189.917,173.016 191.412,173.016 L207.432,173.016 C208.964,173.016 210.26,172.01 210.694,170.621 L218.28,146.952 L225.601,170.445 C225.619,170.495 225.639,170.519 225.659,170.57 L225.725,170.776 C225.732,170.831 225.745,170.869 225.765,170.922 C226.3,172.147 227.495,173.016 228.922,173.016 L245.05,173.016 C246.505,173.016 247.742,172.1 248.235,170.821 L248.386,170.343 C248.386,170.333 248.386,170.302 248.399,170.289 L264.812,116.249 C264.825,116.211 264.829,116.158 264.842,116.111 C264.927,115.811 264.977,115.5 264.977,115.17 C264.977,113.28 263.454,111.751 261.573,111.751" fill="#FFFFFF"/>
    </g>
  </g>
</svg>
